X:3000
T:Merrily we roll along
C:anon.
O:England?
Z:Transcribed by Frank Nordberg - http://www.musicaviva.com
F:http://abc.musicaviva.com/tunes/england/merrily-we-roll-along.abc
M:C
L:1/4
K:C
"C"EDCD|"C"EEE2|"G"DDD2|"C"EGG2|
w:Merr-i-ly we roll a-long, roll a-long, roll a-long
"C"EDCD|"C"EEE2|"G"DDED|"C"C4|]
w:Merr-i-ly we roll a-long on the deep blue sea.
W:
W:
W:  From Musica Viva - http://www.musicaviva.com
W:  the Internet center for free sheet music downloads.

